img/linkedin-icon.svg

<svg width="100" height="100" viewBox="0 0 100 100" fill="none" xmlns="http://www.w3.org/2000/svg">
<g clip-path="url(#clip0_251_11508)">
<path d="M50 100C77.6142 100 100 77.6142 100 50C100 22.3858 77.6142 0 50 0C22.3858 0 0 22.3858 0 50C0 77.6142 22.3858 100 50 100Z" fill="#007BB5"/>
<path d="M34.375 34.375H21.875V78.125H34.375V34.375Z" fill="white"/>
<path d="M64.0594 34.375C55.3375 34.375 53.8375 37.5563 53.125 40.625V34.375H40.625V78.125H53.125V53.125C53.125 49.0719 55.3219 46.875 59.375 46.875C63.3313 46.875 65.625 49.025 65.625 53.125V78.125H78.125V56.25C78.125 43.75 76.4969 34.375 64.0594 34.375Z" fill="white"/>
<path d="M28.125 31.25C31.5768 31.25 34.375 28.4518 34.375 25C34.375 21.5482 31.5768 18.75 28.125 18.75C24.6732 18.75 21.875 21.5482 21.875 25C21.875 28.4518 24.6732 31.25 28.125 31.25Z" fill="white"/>
</g>
<defs>
<clipPath id="clip0_251_11508">
<rect width="100" height="100" fill="white"/>
</clipPath>
</defs>
</svg>

<?xml version="1.0" encoding="UTF-8"?>
<svg xmlns="http://www.w3.org/2000/svg" version="1.1" viewBox="0 0 100 100">
  <defs>
    <style>
      .cls-1 {
        fill: none;
      }

      .cls-2 {
        fill: #fff;
      }

      .cls-3 {
        fill: #006191;
      }
    </style>
  </defs>
  <!-- Generator: Adobe Illustrator 28.7.3, SVG Export Plug-In . SVG Version: 1.2.0 Build 164)  -->
  <g>
    <g id="Layer_1">
      <rect class="cls-1" y="93" width="100" height="100"/>
      <path class="cls-2" d="M50,100c27.6,0,50-22.4,50-50S77.6,0,50,0,0,22.4,0,50s22.4,50,50,50Z"/>
      <path class="cls-3" d="M34.4,34.4h-12.5v43.8h12.5v-43.8Z"/>
      <path class="cls-3" d="M64.1,34.4c-8.7,0-10.2,3.2-10.9,6.2v-6.2h-12.5v43.8h12.5v-25c0-4.1,2.2-6.2,6.2-6.2s6.2,2.2,6.2,6.2v25h12.5v-21.9c0-12.5-1.6-21.9-14.1-21.9Z"/>
      <path class="cls-3" d="M28.1,31.2c3.5,0,6.2-2.8,6.2-6.2s-2.8-6.2-6.2-6.2-6.2,2.8-6.2,6.2,2.8,6.2,6.2,6.2Z"/>
    </g>
  </g>
</svg>
